X: 27
T: Connie The Soldier
Z: JACKB
S: https://thesession.org/tunes/373#setting53061
R: jig
M: 6/8
L: 1/8
K: Dmaj
|:Ac/A/A AdB|cAG EFD|DGG DE/F/G|AGE =cGE|
ABG AdB|cAG EFD|D3 AGE|GED DE/F/G|
Ac/A/A A2d|=cAG EFD|DGG DE/F/G|AGE =cGE|
A2G AdB|=cAG EFD|D3 AGE|GED D2e:||
|:fed ed^c|ed^c d2e|g/f/ed efd|=cAG Ade|
fed efd|=cAB c2d|cAG EF/G/E|1 FDD D2e:|2 FDD D3||

%-------------------- TUNE SEPARATOR --------------------%

